svg/fluentui-system-icons/ic_fluent_space_3d_32_regular.svg

<svg width="32" height="32" viewBox="0 0 32 32" fill="none" xmlns="http://www.w3.org/2000/svg">
<path d="M3 7.5C3 5.01472 5.01472 3 7.5 3H24.5C26.9853 3 29 5.01472 29 7.5V24.5C29 26.9853 26.9853 29 24.5 29H7.5C5.01472 29 3 26.9853 3 24.5V7.5ZM7.5 5C6.11929 5 5 6.11929 5 7.5V15H27V7.5C27 6.11929 25.8807 5 24.5 5H7.5ZM5 19.846L7.49946 17H5V19.846ZM6.64828 21H11.1419L12.3932 17H10.1613L6.64828 21ZM5 23V24.5C5 25.8807 6.11929 27 7.5 27H9.26503L10.5163 23H5ZM12.6119 23L11.3606 27H20.6394L19.3881 23H12.6119ZM21.4837 23L22.735 27H24.5C25.8807 27 27 25.8807 27 24.5V23H21.4837ZM25.3517 21L21.8387 17H19.6068L20.8581 21H25.3517ZM18.7625 21L17.5113 17H14.4887L13.2375 21H18.7625ZM27 19.846V17H24.5005L27 19.846Z" fill="#212121"/>
</svg>

<svg xmlns="http://www.w3.org/2000/svg" width="32" height="32"><path d="M3 7.5A4.5 4.5 0 0 1 7.5 3h17A4.5 4.5 0 0 1 29 7.5v17a4.5 4.5 0 0 1-4.5 4.5h-17A4.5 4.5 0 0 1 3 24.5v-17ZM7.5 5A2.5 2.5 0 0 0 5 7.5V15h22V7.5A2.5 2.5 0 0 0 24.5 5h-17ZM5 19.846 7.5 17H5v2.846ZM6.648 21h4.494l1.251-4h-2.232l-3.513 4ZM5 23v1.5A2.5 2.5 0 0 0 7.5 27h1.765l1.251-4H5Zm7.612 0-1.251 4h9.278l-1.25-4h-6.777Zm8.872 0 1.251 4H24.5a2.5 2.5 0 0 0 2.5-2.5V23h-5.516Zm3.868-2-3.513-4h-2.232l1.251 4h4.494Zm-6.59 0-1.25-4h-3.023l-1.252 4h5.525ZM27 19.846V17h-2.5l2.5 2.846Z"/></svg>
